humanity-icon-theme/Humanity/actions/22/mail-replied.svg

<?xml version="1.0" encoding="UTF-8" standalone="no"?>
<!-- Created with Inkscape (http://www.inkscape.org/) -->

<svg
   xmlns:dc="http://purl.org/dc/elements/1.1/"
   xmlns:cc="http://creativecommons.org/ns#"
   xmlns:rdf="http://www.w3.org/1999/02/22-rdf-syntax-ns#"
   xmlns:svg="http://www.w3.org/2000/svg"
   xmlns="http://www.w3.org/2000/svg"
   xmlns:xlink="http://www.w3.org/1999/xlink"
   version="1.0"
   width="22"
   height="22"
   id="svg2">
  <metadata
     id="metadata66">
    <rdf:RDF>
      <cc:Work
         rdf:about="">
        <dc:format>image/svg+xml</dc:format>
        <dc:type
           rdf:resource="http://purl.org/dc/dcmitype/StillImage" />
        <dc:title></dc:title>
      </cc:Work>
    </rdf:RDF>
  </metadata>
  <defs
     id="defs4">
    <linearGradient
       x1="32.23851"
       y1="37.684677"
       x2="21.87499"
       y2="18.892372"
       id="linearGradient2570"
       xlink:href="#linearGradient4222-0"
       gradientUnits="userSpaceOnUse"
       gradientTransform="matrix(0.3704967,0,0,-0.3617496,5.667946,24.833269)" />
    <radialGradient
       cx="605.71429"
       cy="486.64789"
       r="117.14286"
       fx="605.71429"
       fy="486.64789"
       id="radialGradient10239"
       xlink:href="#linearGradient5060"
       gradientUnits="userSpaceOnUse"
       gradientTransform="matrix(-2.774389,0,0,1.969706,112.7623,-872.8854)" />
    <linearGradient
       id="linearGradient5060">
      <stop
         id="stop5062"
         style="stop-color:#000000;stop-opacity:1"
         offset="0" />
      <stop
         id="stop5064"
         style="stop-color:#000000;stop-opacity:0"
         offset="1" />
    </linearGradient>
    <radialGradient
       cx="605.71429"
       cy="486.64789"
       r="117.14286"
       fx="605.71429"
       fy="486.64789"
       id="radialGradient10237"
       xlink:href="#linearGradient5060"
       gradientUnits="userSpaceOnUse"
       gradientTransform="matrix(3.773088,0,0,1.969706,-2496.5592,-872.8854)" />
    <linearGradient
       id="linearGradient5048">
      <stop
         id="stop5050"
         style="stop-color:#000000;stop-opacity:0"
         offset="0" />
      <stop
         id="stop5056"
         style="stop-color:#000000;stop-opacity:1"
         offset="0.5" />
      <stop
         id="stop5052"
         style="stop-color:#000000;stop-opacity:0"
         offset="1" />
    </linearGradient>
    <linearGradient
       x1="302.85715"
       y1="366.64789"
       x2="302.85715"
       y2="609.50507"
       id="linearGradient10235"
       xlink:href="#linearGradient5048"
       gradientUnits="userSpaceOnUse"
       gradientTransform="matrix(2.774389,0,0,1.969706,-1892.179,-872.8854)" />
    <linearGradient
       id="linearGradient6945">
      <stop
         id="stop6947"
         style="stop-color:#ffffff;stop-opacity:1"
         offset="0" />
      <stop
         id="stop6949"
         style="stop-color:#d3d7cf;stop-opacity:1"
         offset="1" />
    </linearGradient>
    <linearGradient
       x1="11.887408"
       y1="-0.38282421"
       x2="11.436515"
       y2="18.462242"
       id="linearGradient3629"
       xlink:href="#linearGradient6945"
       gradientUnits="userSpaceOnUse"
       gradientTransform="matrix(0.9999908,0,0,1.0000002,-0.99999069,0.9999981)" />
    <linearGradient
       id="linearGradient3600-9">
      <stop
         id="stop3602-7"
         style="stop-color:#f4f4f4;stop-opacity:1"
         offset="0" />
      <stop
         id="stop3604-8"
         style="stop-color:#dbdbdb;stop-opacity:1"
         offset="1" />
    </linearGradient>
    <linearGradient
       id="linearGradient3931-1">
      <stop
         id="stop3933-4"
         style="stop-color:#8d8f8a;stop-opacity:1"
         offset="0" />
      <stop
         id="stop3935-3"
         style="stop-color:#c1c1c1;stop-opacity:1"
         offset="1" />
    </linearGradient>
    <linearGradient
       x1="25.132275"
       y1="6.7287393"
       x2="25.132275"
       y2="47.013336"
       id="linearGradient3743"
       xlink:href="#linearGradient3600-9"
       gradientUnits="userSpaceOnUse"
       gradientTransform="matrix(0.3716348,0,0,0.3317821,-0.9199337,-2.983716)" />
    <linearGradient
       x1="-53.179272"
       y1="16.539951"
       x2="-52.184364"
       y2="5.3934226"
       id="linearGradient3745"
       xlink:href="#linearGradient3931-1"
       gradientUnits="userSpaceOnUse"
       gradientTransform="matrix(0.3000939,0,0,0.3104985,21.158976,-3.3534808)" />
    <linearGradient
       id="linearGradient3242-967-12-570-862-307">
      <stop
         id="stop4498"
         style="stop-color:#ffffff;stop-opacity:1"
         offset="0" />
      <stop
         id="stop4502"
         style="stop-color:#cfcfcf;stop-opacity:1"
         offset="0.87426931" />
      <stop
         id="stop4504"
         style="stop-color:#999999;stop-opacity:1"
         offset="1" />
    </linearGradient>
    <linearGradient
       x1="12"
       y1="4"
       x2="12"
       y2="21"
       id="linearGradient3674"
       xlink:href="#linearGradient3242-967-12-570-862-307"
       gradientUnits="userSpaceOnUse" />
    <linearGradient
       id="linearGradient3495-841-851-719">
      <stop
         id="stop4120"
         style="stop-color:#1e1e1e;stop-opacity:1"
         offset="0" />
      <stop
         id="stop4122"
         style="stop-color:#1e1e1e;stop-opacity:0"
         offset="1" />
    </linearGradient>
    <linearGradient
       x1="23.999866"
       y1="29.826038"
       x2="23.903786"
       y2="16.00676"
       id="linearGradient2466"
       xlink:href="#linearGradient3495-841-851-719"
       gradientUnits="userSpaceOnUse"
       gradientTransform="matrix(0.4657385,0,0,0.4850945,-0.17766434,-0.4684477)" />
    <linearGradient
       x1="23.928667"
       y1="30.773148"
       x2="23.928667"
       y2="45.530704"
       id="linearGradient2916"
       xlink:href="#linearGradient3495-841-851-719"
       gradientUnits="userSpaceOnUse"
       gradientTransform="matrix(0.4657385,0,0,0.4850945,-0.17766444,-3.1022336)" />
    <linearGradient
       id="linearGradient4222-0">
      <stop
         id="stop4224-8"
         style="stop-color:#ffffff;stop-opacity:1"
         offset="0" />
      <stop
         id="stop4226-8"
         style="stop-color:#ffffff;stop-opacity:0"
         offset="1" />
    </linearGradient>
    <linearGradient
       x1="31.340973"
       y1="235.03157"
       x2="31.340973"
       y2="224.67633"
       id="linearGradient4884"
       xlink:href="#linearGradient4022-2-0"
       gradientUnits="userSpaceOnUse" />
    <linearGradient
       id="linearGradient4022-2-0">
      <stop
         id="stop4024-2-8"
         style="stop-color:#555753;stop-opacity:1"
         offset="0" />
      <stop
         id="stop4026-8-3"
         style="stop-color:#babdb6;stop-opacity:1"
         offset="1" />
    </linearGradient>
    <linearGradient
       x1="33"
       y1="234"
       x2="33"
       y2="220"
       id="linearGradient3655"
       xlink:href="#linearGradient2603"
       gradientUnits="userSpaceOnUse" />
    <linearGradient
       id="linearGradient2603">
      <stop
         id="stop2605"
         style="stop-color:#bb2b12;stop-opacity:1"
         offset="0" />
      <stop
         id="stop2607"
         style="stop-color:#cd7233;stop-opacity:1"
         offset="1" />
    </linearGradient>
    <linearGradient
       x1="30"
       y1="221"
       x2="30"
       y2="234"
       id="linearGradient3663"
       xlink:href="#linearGradient2610"
       gradientUnits="userSpaceOnUse" />
    <linearGradient
       id="linearGradient2610">
      <stop
         id="stop2612"
         style="stop-color:#f0c178;stop-opacity:1"
         offset="0" />
      <stop
         id="stop2614"
         style="stop-color:#e18941;stop-opacity:1"
         offset="0.5" />
      <stop
         id="stop2616"
         style="stop-color:#ec4f18;stop-opacity:1"
         offset="1" />
    </linearGradient>
  </defs>
  <path
     d="M 20.844998,7 15.499858,1.8749983 C 13.990482,0.7406084 14.086725,0.4512891 12.999881,0.499998 l -3.9999636,0 C 7.830914,0.4929557 7.7557973,0.8251154 6.4999404,1.8749983 L 1.1549978,7 C 0.86127576,7.2500001 0.49999776,7.856061 0.49999776,8.298 l 0,10.404278 c 0,0.441939 0.206455,0.797724 0.65500004,0.797724 l 19.6900002,0 c 0.448545,0 0.655,-0.355785 0.655,-0.797724 l 0,-10.404278 c 0,-0.441939 -0.290961,-1.0444788 -0.655,-1.298 z"
     id="path2847"
     style="opacity:0.4;fill:url(#linearGradient3629);fill-opacity:1;stroke:#3c3d3b;stroke-width:0.99999553px;stroke-linecap:butt;stroke-linejoin:miter;stroke-opacity:1" />
  <g
     transform="matrix(0.9999908,0,0,1.0000002,-0.99999069,0.9999981)"
     id="layer1">
    <g
       transform="matrix(0.01083522,0,0,0.00543807,21.637333,18.747158)"
       id="g11038"
       style="opacity:0.3;display:inline">
      <rect
         width="1339.6335"
         height="478.35718"
         x="-1559.2523"
         y="-150.69685"
         id="rect11040"
         style="opacity:0.39195981;fill:url(#linearGradient10235);fill-opacity:1;fill-rule:nonzero;stroke:none;stroke-width:1;marker:none;visibility:visible;display:inline;overflow:visible" />
      <path
         d="m -219.61876,-150.68038 c 0,0 0,478.33079 0,478.33079 142.874166,0.90045 345.40022,-107.16966 345.40014,-239.196175 0,-132.026537 -159.436816,-239.134595 -345.40014,-239.134615 l 0,0 z"
         id="path11042"
         style="opacity:0.40206185;fill:url(#radialGradient10237);fill-opacity:1;fill-rule:nonzero;stroke:none;stroke-width:1;marker:none;visibility:visible;display:inline;overflow:visible" />
      <path
         d="m -1559.2523,-150.68038 c 0,0 0,478.33079 0,478.33079 -142.8742,0.90045 -345.4002,-107.16966 -345.4002,-239.196175 0,-132.026537 159.4368,-239.134595 345.4002,-239.134615 l 0,0 z"
         id="path11044"
         style="opacity:0.40206185;fill:url(#radialGradient10239);fill-opacity:1;fill-rule:nonzero;stroke:none;stroke-width:1;marker:none;visibility:visible;display:inline;overflow:visible" />
    </g>
    <path
       d="m 3.4988055,1.4964336 17.0025355,3e-6 0.0024,10.9477254 -17.0072855,0.0594 0.00235,-11.0071284 0,0 z"
       id="rect2594"
       style="opacity:0.7;fill:url(#linearGradient3743);fill-opacity:1;stroke:url(#linearGradient3745);stroke-width:0.99287415;stroke-linecap:butt;stroke-linejoin:round;stroke-miterlimit:4;stroke-opacity:1;stroke-dasharray:none;stroke-dashoffset:0;display:inline" />
    <path
       d="m 5.5738317,7.4963368 10.9264003,0 M 5.5738317,5.5062707 12.499829,5.5064192 m -6.9259973,3.9799834 9.9262083,0 m -9.9262083,-5.9701978 12.9264183,5e-7"
       id="path2853"
       style="opacity:0.2;fill:none;stroke:#000000;stroke-width:0.99262124;stroke-linecap:square;stroke-linejoin:round;stroke-miterlimit:4;stroke-opacity:1;stroke-dasharray:none;stroke-dashoffset:0;display:inline" />
    <path
       d="M 2,9 2,20 22,20 22,9 16,14 7.9999999,14 2,9 z"
       transform="matrix(1.0000092,0,0,0.9999998,-1.154941e-5,-1.9999977)"
       id="path2894"
       style="opacity:0.8;fill:url(#linearGradient3674);fill-opacity:1;stroke:none" />
    <path
       d="m 14.296813,0.5000021 -4.5936397,0 m -7.2031619,6.1939985 0,10.6117074 c 0,0.122689 0.074735,0.194289 0.2030019,0.19429 l 18.5941707,4e-6 c 0.128266,0 0.203002,-0.0716 0.203002,-0.194294 l 0,-10.6117074"
       id="path11060"
       style="opacity:0.4;fill:none;stroke:#ffffff;stroke-width:0.99999982;stroke-linecap:butt;stroke-linejoin:round;stroke-miterlimit:4;stroke-opacity:0.99236642;stroke-dasharray:none;stroke-dashoffset:0.69999992" />
  </g>
  <path
     d="M 6.6619696,13.253521 0.99999776,19 M 15.169012,13.338028 20.999998,19"
     id="path3341"
     style="opacity:0.5;fill:none;stroke:url(#linearGradient2916);stroke-width:1;stroke-linecap:butt;stroke-linejoin:miter;stroke-miterlimit:4;stroke-opacity:1;stroke-dasharray:none;stroke-dashoffset:0;marker:none;visibility:visible;display:inline;overflow:visible;enable-background:accumulate" />
  <path
     d="M 0.99999776,7.9999999 7.9999978,13.5 l 6.0000002,0 7,-5.5000001"
     id="path3493"
     style="opacity:0.5;fill:none;stroke:url(#linearGradient2466);stroke-width:1.00000012;stroke-linecap:butt;stroke-linejoin:miter;stroke-miterlimit:4;stroke-opacity:1;stroke-dasharray:none" />
  <path
     d="m 7.5,17.500147 8,0 0,1.75121 L 20.045115,15.5 15.5,11.7 l 0,1.800147 -8,0"
     id="path2913"
     style="opacity:0.3;fill:none;stroke:url(#linearGradient2570);stroke-width:0.99829447;stroke-linecap:butt;stroke-linejoin:miter;stroke-miterlimit:4;stroke-opacity:1;stroke-dasharray:none;stroke-dashoffset:0;marker:none;visibility:visible;display:inline;overflow:visible" />
  <g
     transform="translate(-23.5,-212)"
     id="g4946"
     style="display:inline;enable-background:new">
    <g
       id="g4873"
       style="stroke:url(#linearGradient4884)">
      <path
         d="m 32,221 -5.5,5.5 5.5,5.5"
         id="path2932-4"
         style="fill:none;stroke:url(#linearGradient3655);stroke-width:4;stroke-linecap:round;stroke-linejoin:round;stroke-miterlimit:4;stroke-opacity:1;stroke-dasharray:none;display:inline;enable-background:new" />
    </g>
    <path
       d="m 32,221 -5.5,5.5 5.5,5.5"
       id="path2932"
       style="fill:none;stroke:url(#linearGradient3663);stroke-width:2;stroke-linecap:round;stroke-linejoin:round;stroke-miterlimit:4;stroke-opacity:1;stroke-dasharray:none" />
    <path
       d="m 32,220.5 -5.5,5.5 5.5,5.5"
       id="path2932-0"
       style="opacity:0.4;fill:none;stroke:#ffffff;stroke-width:1;stroke-linecap:round;stroke-linejoin:miter;stroke-miterlimit:4;stroke-opacity:1;stroke-dasharray:none;display:inline;enable-background:new" />
  </g>
</svg>

<?xml version="1.0" encoding="UTF-8" standalone="no"?>
<!-- Created with Inkscape (http://www.inkscape.org/) -->
<svg id="svg2" xmlns:rdf="http://www.w3.org/1999/02/22-rdf-syntax-ns#" xmlns="http://www.w3.org/2000/svg" height="22" width="22" version="1.0" xmlns:cc="http://creativecommons.org/ns#" xmlns:xlink="http://www.w3.org/1999/xlink" xmlns:dc="http://purl.org/dc/elements/1.1/">
 <metadata id="metadata66">
  <rdf:RDF>
   <cc:Work rdf:about="">
    <dc:format>image/svg+xml</dc:format>
    <dc:type rdf:resource="http://purl.org/dc/dcmitype/StillImage"/>
    <dc:title/>
   </cc:Work>
  </rdf:RDF>
 </metadata>
 <defs id="defs4">
  <linearGradient id="linearGradient2570" y2="18.892" gradientUnits="userSpaceOnUse" x2="21.875" gradientTransform="matrix(.37050 0 0 -.36175 5.6679 24.833)" y1="37.685" x1="32.239">
   <stop id="stop4224-8" style="stop-color:#fff" offset="0"/>
   <stop id="stop4226-8" style="stop-color:#fff;stop-opacity:0" offset="1"/>
  </linearGradient>
  <radialGradient id="radialGradient10239" xlink:href="#linearGradient5060" gradientUnits="userSpaceOnUse" cy="486.65" cx="605.71" gradientTransform="matrix(-2.7744 0 0 1.9697 112.76 -872.89)" r="117.14"/>
  <linearGradient id="linearGradient5060">
   <stop id="stop5062" offset="0"/>
   <stop id="stop5064" style="stop-opacity:0" offset="1"/>
  </linearGradient>
  <radialGradient id="radialGradient10237" xlink:href="#linearGradient5060" gradientUnits="userSpaceOnUse" cy="486.65" cx="605.71" gradientTransform="matrix(3.7731 0 0 1.9697 -2496.6 -872.89)" r="117.14"/>
  <linearGradient id="linearGradient10235" y2="609.51" gradientUnits="userSpaceOnUse" x2="302.86" gradientTransform="matrix(2.7744 0 0 1.9697 -1892.2 -872.89)" y1="366.65" x1="302.86">
   <stop id="stop5050" style="stop-opacity:0" offset="0"/>
   <stop id="stop5056" offset=".5"/>
   <stop id="stop5052" style="stop-opacity:0" offset="1"/>
  </linearGradient>
  <linearGradient id="linearGradient3629" y2="18.462" gradientUnits="userSpaceOnUse" x2="11.437" gradientTransform="matrix(.99999 0 0 1 -.99999 1)" y1="-.38282" x1="11.887">
   <stop id="stop6947" style="stop-color:#fff" offset="0"/>
   <stop id="stop6949" style="stop-color:#d3d7cf" offset="1"/>
  </linearGradient>
  <linearGradient id="linearGradient3743" y2="47.013" gradientUnits="userSpaceOnUse" x2="25.132" gradientTransform="matrix(.37163 0 0 .33178 -.91993 -2.9837)" y1="6.7287" x1="25.132">
   <stop id="stop3602-7" style="stop-color:#f4f4f4" offset="0"/>
   <stop id="stop3604-8" style="stop-color:#dbdbdb" offset="1"/>
  </linearGradient>
  <linearGradient id="linearGradient3745" y2="5.3934" gradientUnits="userSpaceOnUse" x2="-52.184" gradientTransform="matrix(.30009 0 0 .31050 21.159 -3.3535)" y1="16.54" x1="-53.179">
   <stop id="stop3933-4" style="stop-color:#8d8f8a" offset="0"/>
   <stop id="stop3935-3" style="stop-color:#c1c1c1" offset="1"/>
  </linearGradient>
  <linearGradient id="linearGradient3674" y2="21" gradientUnits="userSpaceOnUse" x2="12" y1="4" x1="12">
   <stop id="stop4498" style="stop-color:#fff" offset="0"/>
   <stop id="stop4502" style="stop-color:#cfcfcf" offset=".87427"/>
   <stop id="stop4504" style="stop-color:#999" offset="1"/>
  </linearGradient>
  <linearGradient id="linearGradient3495-841-851-719">
   <stop id="stop4120" style="stop-color:#1e1e1e" offset="0"/>
   <stop id="stop4122" style="stop-color:#1e1e1e;stop-opacity:0" offset="1"/>
  </linearGradient>
  <linearGradient id="linearGradient2466" y2="16.007" xlink:href="#linearGradient3495-841-851-719" gradientUnits="userSpaceOnUse" x2="23.904" gradientTransform="matrix(.46574 0 0 .48509 -.17766 -.46845)" y1="29.826" x1="24"/>
  <linearGradient id="linearGradient2916" y2="45.531" xlink:href="#linearGradient3495-841-851-719" gradientUnits="userSpaceOnUse" x2="23.929" gradientTransform="matrix(.46574 0 0 .48509 -.17766 -3.1022)" y1="30.773" x1="23.929"/>
  <linearGradient id="linearGradient4884" y2="224.68" gradientUnits="userSpaceOnUse" x2="31.341" y1="235.03" x1="31.341">
   <stop id="stop4024-2-8" style="stop-color:#555753" offset="0"/>
   <stop id="stop4026-8-3" style="stop-color:#babdb6" offset="1"/>
  </linearGradient>
  <linearGradient id="linearGradient3655" y2="220" gradientUnits="userSpaceOnUse" x2="33" y1="234" x1="33">
   <stop id="stop2605" style="stop-color:#bb2b12" offset="0"/>
   <stop id="stop2607" style="stop-color:#cd7233" offset="1"/>
  </linearGradient>
  <linearGradient id="linearGradient3663" y2="234" gradientUnits="userSpaceOnUse" x2="30" y1="221" x1="30">
   <stop id="stop2612" style="stop-color:#f0c178" offset="0"/>
   <stop id="stop2614" style="stop-color:#e18941" offset=".5"/>
   <stop id="stop2616" style="stop-color:#ec4f18" offset="1"/>
  </linearGradient>
 </defs>
 <path id="path2847" style="opacity:.4;stroke:#3c3d3b;stroke-width:1px;fill:url(#linearGradient3629)" d="m20.845 7-5.345-5.125c-1.51-1.1344-1.413-1.4237-2.5-1.375h-4c-1.1691-0.00704-1.2442 0.32512-2.5001 1.375l-5.3449 5.125c-0.29372 0.25-0.655 0.8561-0.655 1.298v10.404c0 0.44194 0.20646 0.79772 0.655 0.79772h19.69c0.44854 0 0.655-0.35578 0.655-0.79772v-10.404c0-0.44194-0.29096-1.0445-0.655-1.298z"/>
 <g id="layer1" transform="matrix(.99999 0 0 1 -.99999 1)">
  <g id="g11038" style="opacity:.3" transform="matrix(.010835 0 0 .0054381 21.637 18.747)">
   <rect id="rect11040" style="opacity:.39196;fill:url(#linearGradient10235)" height="478.36" width="1339.6" y="-150.7" x="-1559.3"/>
   <path id="path11042" style="opacity:.40206;fill:url(#radialGradient10237)" d="m-219.62-150.68v478.33c142.87 0.90045 345.4-107.17 345.4-239.2s-159.44-239.13-345.4-239.13z"/>
   <path id="path11044" style="opacity:.40206;fill:url(#radialGradient10239)" d="m-1559.3-150.68v478.33c-142.87 0.90045-345.4-107.17-345.4-239.2s159.44-239.13 345.4-239.13z"/>
  </g>
  <path id="rect2594" style="opacity:.7;stroke-linejoin:round;stroke:url(#linearGradient3745);stroke-width:.99287;fill:url(#linearGradient3743)" d="m3.4988 1.4964 17.003 0.000003 0.0024 10.948-17.007 0.0594 0.00235-11.007z"/>
  <path id="path2853" style="opacity:.2;stroke-linejoin:round;stroke:#000;stroke-linecap:square;stroke-width:.99262;fill:none" d="m5.5738 7.4963h10.926m-10.926-1.99 6.9262 0.0001m-6.926 3.98h9.9262m-9.9262-5.9702 12.926 5e-7"/>
  <path id="path2894" style="opacity:.8;fill:url(#linearGradient3674)" d="m2 9v11h20v-11l-6 5h-8l-6-5z" transform="translate(-.000011549 -2)"/>
  <path id="path11060" style="opacity:.4;stroke-linejoin:round;stroke-opacity:.99237;stroke-dashoffset:0.7;stroke:#fff;fill:none" d="m14.297 0.5h-4.5936m-7.2032 6.194v10.612c0 0.12269 0.074735 0.19429 0.203 0.19429l18.594 0.000004c0.12827 0 0.203-0.0716 0.203-0.19429v-10.612"/>
 </g>
 <path id="path3341" style="opacity:.5;stroke:url(#linearGradient2916);fill:none" d="m6.662 13.254-5.662 5.746m14.169-5.662 5.831 5.662"/>
 <path id="path3493" style="opacity:.5;stroke:url(#linearGradient2466);fill:none" d="m1 8 7 5.5h6l7-5.5"/>
 <path id="path2913" style="opacity:.3;stroke:url(#linearGradient2570);stroke-width:.99829;fill:none" d="m7.5 17.5h8v1.7512l4.545-3.751-4.545-3.8v1.8001h-8"/>
 <g id="g4946" style="enable-background:new" transform="translate(-23.5,-212)">
  <g id="g4873" style="stroke:url(#linearGradient4884)">
   <path id="path2932-4" style="stroke-linejoin:round;stroke-width:4;stroke:url(#linearGradient3655);stroke-linecap:round;enable-background:new;fill:none" d="m32 221-5.5 5.5 5.5 5.5"/>
  </g>
  <path id="path2932" style="stroke-linejoin:round;stroke:url(#linearGradient3663);stroke-linecap:round;stroke-width:2;fill:none" d="m32 221-5.5 5.5 5.5 5.5"/>
  <path id="path2932-0" style="opacity:.4;stroke:#fff;stroke-linecap:round;enable-background:new;fill:none" d="m32 220.5-5.5 5.5 5.5 5.5"/>
 </g>
</svg>
